X:844
T:Kathleen Hehir's
T:Catherine Hehir's
R:Slide
O:Ireland
D:De Danann I
S:Irish Traditional Music Session Tunes
B:Irish Traditional Music Session Tunes
Z:Transcription, minor arr., chords:Mike Long
M:12/8
L:1/8
K:D
A|\
"D"dcd e2d "A"c2E EFG|"G"BcB BAG "D"F2D DFA|\
"D"dcd e2d "A"c2E EFG|"G"ABA "A"GFE "D"D3-D2:|
|:A|\
"D"F2A d3 "G"c2B G3|"A"ABA G2E "D"B2A F3|\
"D"DFA d3 "G"c2B G2F|"A"EFG ABc "D"d3-d2:|
|:A|\
"D"d3 d2e f2d A2d|"D"fgf fed "A"c2d ecA|\
"D"d3 d2e f2d A2F|"A"EFG ABc "D"d3-d2:|
|:f|\
"D"a2f f2d Adf agf|"G"g2e e2d Bcd efg|\
"D"a2f f2d Adf agf|"G"gec "A"ABc "D"d3-d2:|
